school/img/country/SH.svg

<svg width="13" height="12" viewBox="0 0 13 12" fill="none" xmlns="http://www.w3.org/2000/svg">
<rect width="13" height="12" rx="2" fill="white"/>
<mask id="mask0" mask-type="alpha" maskUnits="userSpaceOnUse" x="0" y="0" width="13" height="12">
<rect width="13" height="12" rx="2" fill="white"/>
</mask>
<g mask="url(#mask0)">
<rect width="13" height="12" fill="url(#paint0_linear)"/>
<path fill-rule="evenodd" clip-rule="evenodd" d="M8.04761 6C8.04761 5.53231 8.04761 5.00386 8.04761 4.53305C8.04761 3.79667 8.64456 3.2 9.38094 3.2H9.80951C10.5459 3.2 11.1428 3.79667 11.1428 4.53305C11.1428 5.00386 11.1428 5.53231 11.1428 6C11.1428 8 9.59523 8.8 9.59523 8.8C9.59523 8.8 8.04761 8 8.04761 6Z" fill="#8FC5FF"/>
<mask id="mask1" mask-type="alpha" maskUnits="userSpaceOnUse" x="8" y="3" width="4" height="6">
<path fill-rule="evenodd" clip-rule="evenodd" d="M8.04761 6C8.04761 5.53231 8.04761 5.00386 8.04761 4.53305C8.04761 3.79667 8.64456 3.2 9.38094 3.2H9.80951C10.5459 3.2 11.1428 3.79667 11.1428 4.53305C11.1428 5.00386 11.1428 5.53231 11.1428 6C11.1428 8 9.59523 8.8 9.59523 8.8C9.59523 8.8 8.04761 8 8.04761 6Z" fill="white"/>
</mask>
<g mask="url(#mask1)">
<path fill-rule="evenodd" clip-rule="evenodd" d="M9.32747 7.13013C9.32747 7.13013 9.63729 6.61167 9.81953 6.61167C10.0018 6.61167 10.0352 6.95593 10.3155 6.95593C10.5957 6.95593 10.7435 6.40728 11.0134 6.40728C11.2833 6.40728 11.0134 8.20731 11.0134 8.20731L10.6476 8.69484L8.50665 9.01441L9.32747 7.13013Z" fill="#366CC9"/>
<path fill-rule="evenodd" clip-rule="evenodd" d="M8.41569 6.33072L8.68893 6L8.95741 6.84942L9.31783 6L9.62779 8.42123L9.11232 8.2857L7.42853 7.29081L8.41569 6.33072Z" fill="#CF6200"/>
<rect x="8.04761" y="3.2" width="3.09524" height="2.4" fill="#FFFF00"/>
</g>
<path d="M8.38094 6V5.91162V5.86695V5.822V5.77677V5.73129V5.68559V5.63969V5.5936V5.54735V5.50096V5.45446V5.40786V5.36118V5.31445V5.26769V5.24431V5.24139V5.23846V5.23554V5.23262V5.22969V5.22677V5.22385V5.22093V5.218V5.21508V5.21216V5.20923V5.20631V5.20339V5.20047V5.19754V5.19462V5.1917V5.18878V5.18586V5.18293V5.18001V5.17709V5.17417V5.17125V5.16833V5.16541V5.16249V5.15956V5.15664V5.15372V5.1508V5.14788V5.14496V5.14204V5.13912V5.13621V5.13329V5.13037V5.12745V5.12453V5.12161V5.11869V5.11578V5.11286V5.10994V5.10702V5.10411V5.10119V5.09828V5.09536V5.09244V5.08953V5.08661V5.0837V5.08078V5.07787V5.07496V5.07204V5.06913V5.06622V5.0633V5.06039V5.05748V5.05457V5.05166V5.04874V5.04583V5.04292V5.04001V5.0371V5.0342V5.03129V5.02838V5.02547V5.02256V5.01966V5.01675V5.01384V5.01094V5.00803V5.00513V5.00222V4.99932V4.99642V4.99351V4.99061V4.98771V4.98481V4.9819V4.979V4.9761V4.9732V4.9703V4.96741V4.96451V4.96161V4.95871V4.95582V4.95292V4.95002V4.94713V4.94423V4.94134V4.93845V4.93555V4.93266V4.92977V4.92688V4.92399V4.9211V4.91821V4.91532V4.91243V4.90954V4.90666V4.90377V4.90088V4.898V4.89511V4.89223V4.88935V4.88647V4.88358V4.8807V4.87782V4.87494V4.87206V4.86918V4.86631V4.86343V4.86055V4.85768V4.8548V4.85193V4.84905V4.84618V4.84331V4.84044V4.83757V4.8347V4.83183V4.82896V4.82609V4.82323V4.82036V4.81749V4.81463V4.81177V4.8089V4.80604V4.80318V4.80032V4.79746V4.7946V4.79174V4.78889V4.78603V4.78317V4.78032V4.77747V4.77461V4.77176V4.76891V4.76606V4.76321V4.76036V4.75751V4.75467V4.75182V4.74898V4.74613V4.74329V4.74045V4.73476V4.71208V4.66689V4.62198V4.57736V4.53305C8.38094 3.98086 8.82857 3.53333 9.38094 3.53333H9.80951C10.3619 3.53333 10.8095 3.98086 10.8095 4.53305V4.53581V4.53857V4.54133V4.5441V4.54686V4.54963V4.55239V4.55516V4.55793V4.5607V4.56348V4.56625V4.56902V4.5718V4.57458V4.57736V4.58014V4.58292V4.5857V4.58848V4.59127V4.59405V4.59684V4.59963V4.60242V4.60521V4.608V4.61079V4.61359V4.61638V4.61918V4.62198V4.62477V4.62757V4.63037V4.63318V4.63598V4.63878V4.64159V4.6444V4.6472V4.65001V4.65282V4.65563V4.65845V4.66126V4.66407V4.66689V4.66971V4.67252V4.67534V4.67816V4.68098V4.6838V4.68663V4.68945V4.69227V4.6951V4.69793V4.70075V4.70358V4.70641V4.70924V4.71208V4.71491V4.71774V4.72058V4.72341V4.72625V4.72909V4.73192V4.73476V4.7376V4.74045V4.74329V4.74613V4.74898V4.75182V4.75467V4.75751V4.76036V4.76321V4.76606V4.76891V4.77176V4.77461V4.77747V4.78032V4.78317V4.78603V4.78889V4.79174V4.7946V4.79746V4.80032V4.80318V4.80604V4.8089V4.81177V4.81463V4.81749V4.82036V4.82323V4.82609V4.82896V4.83183V4.8347V4.83757V4.84044V4.84331V4.84618V4.84905V4.85193V4.8548V4.85768V4.86055V4.86343V4.86631V4.86918V4.87206V4.87494V4.87782V4.8807V4.88358V4.88647V4.88935V4.89223V4.89512V4.898V4.90088V4.90377V4.90666V4.90954V4.91243V4.91532V4.91821V4.9211V4.92399V4.92688V4.92977V4.93266V4.93555V4.93845V4.94134V4.94423V4.94713V4.95002V4.95292V4.95582V4.95871V4.96161V4.96451V4.96741V4.9703V4.9732V4.9761V4.979V4.9819V4.98481V4.98771V4.99061V4.99351V4.99642V4.99932V5.00222V5.00513V5.00803V5.01094V5.01384V5.01675V5.01966V5.02256V5.02547V5.02838V5.03129V5.0342V5.0371V5.04001V5.04292V5.04583V5.04874V5.05166V5.05457V5.05748V5.06039V5.0633V5.06622V5.06913V5.07204V5.07496V5.07787V5.08078V5.0837V5.08661V5.08953V5.09244V5.09536V5.09828V5.10119V5.10411V5.10702V5.10994V5.11286V5.11578V5.11869V5.12161V5.12453V5.12745V5.13037V5.13329V5.13621V5.13912V5.14204V5.14496V5.14788V5.1508V5.15372V5.15664V5.15956V5.16249V5.16541V5.16833V5.17125V5.17417V5.17709V5.18001V5.18293V5.18586V5.18878V5.1917V5.19462V5.19754V5.20047V5.20339V5.20631V5.20923V5.21216V5.21508V5.218V5.22093V5.22385V5.22677V5.22969V5.23262V5.23554V5.23846V5.24139V5.24431V5.24723V5.25016V5.25308V5.256V5.25892V5.26185V5.26477V5.26769V5.27062V5.27354V5.27646V5.27938V5.28231V5.28523V5.28815V5.29108V5.294V5.29692V5.29984V5.30276V5.30569V5.30861V5.31153V5.31445V5.31737V5.3203V5.32322V5.32614V5.32906V5.33198V5.3349V5.33782V5.34074V5.34366V5.34658V5.3495V5.35242V5.35534V5.35826V5.36118V5.3641V5.36702V5.36994V5.37285V5.37577V5.37869V5.38161V5.38453V5.38744V5.39036V5.39328V5.39619V5.39911V5.40202V5.40494V5.40786V5.41077V5.41369V5.4166V5.41951V5.42243V5.42534V5.42825V5.43117V5.43408V5.43699V5.4399V5.44282V5.44573V5.44864V5.45155V5.45446V5.45737V5.46028V5.46319V5.46609V5.469V5.47191V5.47482V5.47772V5.48063V5.48354V5.48644V5.48935V5.49225V5.49516V5.49806V5.50096V5.50387V5.50677V5.50967V5.51257V5.51547V5.51837V5.52127V5.52417V5.52707V5.52997V5.53287V5.53577V5.53866V5.54156V5.54446V5.54735V5.55025V5.55314V5.55603V5.55893V5.56182V5.56471V5.5676V5.57049V5.57338V5.57627V5.57916V5.58205V5.58494V5.58783V5.59071V5.5936V5.59649V5.59937V5.60225V5.60514V5.60802V5.6109V5.61378V5.61667V5.61955V5.62242V5.6253V5.62818V5.63106V5.63394V5.63681V5.63969V5.64256V5.64544V5.64831V5.65118V5.65405V5.65692V5.65979V5.66266V5.66553V5.6684V5.67127V5.67413V5.677V5.67987V5.68273V5.68559V5.68846V5.69132V5.69418V5.69704V5.6999V5.70276V5.70561V5.70847V5.71133V5.71418V5.71704V5.71989V5.72274V5.72559V5.72844V5.73129V5.73414V5.73699V5.73984V5.74268V5.74553V5.74837V5.75122V5.75406V5.7569V5.75974V5.76258V5.76542V5.76826V5.7711V5.77393V5.77677V5.7796V5.78244V5.78527V5.7881V5.79093V5.79376V5.79659V5.79942V5.80224V5.80507V5.80789V5.81071V5.81354V5.81636V5.81918V5.822V5.82481V5.82763V5.83045V5.83326V5.83608V5.83889V5.8417V5.84451V5.84732V5.85013V5.85294V5.85574V5.85855V5.86135V5.86415V5.86695V5.86976V5.87255V5.87535V5.87815V5.88095V5.88374V5.88653V5.88933V5.89212V5.89491V5.8977V5.90048V5.90327V5.90606V5.90884V5.91162V5.9144V5.91718V5.91996V5.92274V5.92552V5.92829V5.93107V5.93384V5.93661V5.93938V5.94215V5.94492V5.94769V5.95045V5.95321V5.95598V5.95874V5.9615V5.96426V5.96701V5.96977V5.97252V5.97528V5.97803V5.98078V5.98353V5.98628V5.98902V5.99177V5.99451V5.99726V6C10.8095 6.90588 10.4614 7.53128 10.1163 7.93268C9.94246 8.13485 9.76884 8.28054 9.6401 8.37481C9.62442 8.3863 9.60943 8.397 9.59523 8.40692C9.58102 8.397 9.56604 8.3863 9.55035 8.37481C9.42161 8.28054 9.24799 8.13485 9.07417 7.93268C8.72905 7.53128 8.38094 6.90588 8.38094 6Z" stroke="white" stroke-width="0.666667"/>
<mask id="mask2" mask-type="alpha" maskUnits="userSpaceOnUse" x="8" y="3" width="4" height="6">
<path d="M8.38094 6V5.91162V5.86695V5.822V5.77677V5.73129V5.68559V5.63969V5.5936V5.54735V5.50096V5.45446V5.40786V5.36118V5.31445V5.26769V5.24431V5.24139V5.23846V5.23554V5.23262V5.22969V5.22677V5.22385V5.22093V5.218V5.21508V5.21216V5.20923V5.20631V5.20339V5.20047V5.19754V5.19462V5.1917V5.18878V5.18586V5.18293V5.18001V5.17709V5.17417V5.17125V5.16833V5.16541V5.16249V5.15956V5.15664V5.15372V5.1508V5.14788V5.14496V5.14204V5.13912V5.13621V5.13329V5.13037V5.12745V5.12453V5.12161V5.11869V5.11578V5.11286V5.10994V5.10702V5.10411V5.10119V5.09828V5.09536V5.09244V5.08953V5.08661V5.0837V5.08078V5.07787V5.07496V5.07204V5.06913V5.06622V5.0633V5.06039V5.05748V5.05457V5.05166V5.04874V5.04583V5.04292V5.04001V5.0371V5.0342V5.03129V5.02838V5.02547V5.02256V5.01966V5.01675V5.01384V5.01094V5.00803V5.00513V5.00222V4.99932V4.99642V4.99351V4.99061V4.98771V4.98481V4.9819V4.979V4.9761V4.9732V4.9703V4.96741V4.96451V4.96161V4.95871V4.95582V4.95292V4.95002V4.94713V4.94423V4.94134V4.93845V4.93555V4.93266V4.92977V4.92688V4.92399V4.9211V4.91821V4.91532V4.91243V4.90954V4.90666V4.90377V4.90088V4.898V4.89511V4.89223V4.88935V4.88647V4.88358V4.8807V4.87782V4.87494V4.87206V4.86918V4.86631V4.86343V4.86055V4.85768V4.8548V4.85193V4.84905V4.84618V4.84331V4.84044V4.83757V4.8347V4.83183V4.82896V4.82609V4.82323V4.82036V4.81749V4.81463V4.81177V4.8089V4.80604V4.80318V4.80032V4.79746V4.7946V4.79174V4.78889V4.78603V4.78317V4.78032V4.77747V4.77461V4.77176V4.76891V4.76606V4.76321V4.76036V4.75751V4.75467V4.75182V4.74898V4.74613V4.74329V4.74045V4.73476V4.71208V4.66689V4.62198V4.57736V4.53305C8.38094 3.98086 8.82857 3.53333 9.38094 3.53333H9.80951C10.3619 3.53333 10.8095 3.98086 10.8095 4.53305V4.53581V4.53857V4.54133V4.5441V4.54686V4.54963V4.55239V4.55516V4.55793V4.5607V4.56348V4.56625V4.56902V4.5718V4.57458V4.57736V4.58014V4.58292V4.5857V4.58848V4.59127V4.59405V4.59684V4.59963V4.60242V4.60521V4.608V4.61079V4.61359V4.61638V4.61918V4.62198V4.62477V4.62757V4.63037V4.63318V4.63598V4.63878V4.64159V4.6444V4.6472V4.65001V4.65282V4.65563V4.65845V4.66126V4.66407V4.66689V4.66971V4.67252V4.67534V4.67816V4.68098V4.6838V4.68663V4.68945V4.69227V4.6951V4.69793V4.70075V4.70358V4.70641V4.70924V4.71208V4.71491V4.71774V4.72058V4.72341V4.72625V4.72909V4.73192V4.73476V4.7376V4.74045V4.74329V4.74613V4.74898V4.75182V4.75467V4.75751V4.76036V4.76321V4.76606V4.76891V4.77176V4.77461V4.77747V4.78032V4.78317V4.78603V4.78889V4.79174V4.7946V4.79746V4.80032V4.80318V4.80604V4.8089V4.81177V4.81463V4.81749V4.82036V4.82323V4.82609V4.82896V4.83183V4.8347V4.83757V4.84044V4.84331V4.84618V4.84905V4.85193V4.8548V4.85768V4.86055V4.86343V4.86631V4.86918V4.87206V4.87494V4.87782V4.8807V4.88358V4.88647V4.88935V4.89223V4.89512V4.898V4.90088V4.90377V4.90666V4.90954V4.91243V4.91532V4.91821V4.9211V4.92399V4.92688V4.92977V4.93266V4.93555V4.93845V4.94134V4.94423V4.94713V4.95002V4.95292V4.95582V4.95871V4.96161V4.96451V4.96741V4.9703V4.9732V4.9761V4.979V4.9819V4.98481V4.98771V4.99061V4.99351V4.99642V4.99932V5.00222V5.00513V5.00803V5.01094V5.01384V5.01675V5.01966V5.02256V5.02547V5.02838V5.03129V5.0342V5.0371V5.04001V5.04292V5.04583V5.04874V5.05166V5.05457V5.05748V5.06039V5.0633V5.06622V5.06913V5.07204V5.07496V5.07787V5.08078V5.0837V5.08661V5.08953V5.09244V5.09536V5.09828V5.10119V5.10411V5.10702V5.10994V5.11286V5.11578V5.11869V5.12161V5.12453V5.12745V5.13037V5.13329V5.13621V5.13912V5.14204V5.14496V5.14788V5.1508V5.15372V5.15664V5.15956V5.16249V5.16541V5.16833V5.17125V5.17417V5.17709V5.18001V5.18293V5.18586V5.18878V5.1917V5.19462V5.19754V5.20047V5.20339V5.20631V5.20923V5.21216V5.21508V5.218V5.22093V5.22385V5.22677V5.22969V5.23262V5.23554V5.23846V5.24139V5.24431V5.24723V5.25016V5.25308V5.256V5.25892V5.26185V5.26477V5.26769V5.27062V5.27354V5.27646V5.27938V5.28231V5.28523V5.28815V5.29108V5.294V5.29692V5.29984V5.30276V5.30569V5.30861V5.31153V5.31445V5.31737V5.3203V5.32322V5.32614V5.32906V5.33198V5.3349V5.33782V5.34074V5.34366V5.34658V5.3495V5.35242V5.35534V5.35826V5.36118V5.3641V5.36702V5.36994V5.37285V5.37577V5.37869V5.38161V5.38453V5.38744V5.39036V5.39328V5.39619V5.39911V5.40202V5.40494V5.40786V5.41077V5.41369V5.4166V5.41951V5.42243V5.42534V5.42825V5.43117V5.43408V5.43699V5.4399V5.44282V5.44573V5.44864V5.45155V5.45446V5.45737V5.46028V5.46319V5.46609V5.469V5.47191V5.47482V5.47772V5.48063V5.48354V5.48644V5.48935V5.49225V5.49516V5.49806V5.50096V5.50387V5.50677V5.50967V5.51257V5.51547V5.51837V5.52127V5.52417V5.52707V5.52997V5.53287V5.53577V5.53866V5.54156V5.54446V5.54735V5.55025V5.55314V5.55603V5.55893V5.56182V5.56471V5.5676V5.57049V5.57338V5.57627V5.57916V5.58205V5.58494V5.58783V5.59071V5.5936V5.59649V5.59937V5.60225V5.60514V5.60802V5.6109V5.61378V5.61667V5.61955V5.62242V5.6253V5.62818V5.63106V5.63394V5.63681V5.63969V5.64256V5.64544V5.64831V5.65118V5.65405V5.65692V5.65979V5.66266V5.66553V5.6684V5.67127V5.67413V5.677V5.67987V5.68273V5.68559V5.68846V5.69132V5.69418V5.69704V5.6999V5.70276V5.70561V5.70847V5.71133V5.71418V5.71704V5.71989V5.72274V5.72559V5.72844V5.73129V5.73414V5.73699V5.73984V5.74268V5.74553V5.74837V5.75122V5.75406V5.7569V5.75974V5.76258V5.76542V5.76826V5.7711V5.77393V5.77677V5.7796V5.78244V5.78527V5.7881V5.79093V5.79376V5.79659V5.79942V5.80224V5.80507V5.80789V5.81071V5.81354V5.81636V5.81918V5.822V5.82481V5.82763V5.83045V5.83326V5.83608V5.83889V5.8417V5.84451V5.84732V5.85013V5.85294V5.85574V5.85855V5.86135V5.86415V5.86695V5.86976V5.87255V5.87535V5.87815V5.88095V5.88374V5.88653V5.88933V5.89212V5.89491V5.8977V5.90048V5.90327V5.90606V5.90884V5.91162V5.9144V5.91718V5.91996V5.92274V5.92552V5.92829V5.93107V5.93384V5.93661V5.93938V5.94215V5.94492V5.94769V5.95045V5.95321V5.95598V5.95874V5.9615V5.96426V5.96701V5.96977V5.97252V5.97528V5.97803V5.98078V5.98353V5.98628V5.98902V5.99177V5.99451V5.99726V6C10.8095 6.90588 10.4614 7.53128 10.1163 7.93268C9.94246 8.13485 9.76884 8.28054 9.6401 8.37481C9.62442 8.3863 9.60943 8.397 9.59523 8.40692C9.58102 8.397 9.56604 8.3863 9.55035 8.37481C9.42161 8.28054 9.24799 8.13485 9.07417 7.93268C8.72905 7.53128 8.38094 6.90588 8.38094 6Z" fill="white" stroke="white" stroke-width="0.666667"/>
</mask>
<g mask="url(#mask2)">
</g>
<path d="M0 -0.333333H-0.75L-0.247423 0.223368L1.83333 2.5282V3.05406L-0.226093 4.95507L-0.333333 5.05406V5.2V5.6V6.29771L0.209446 5.85931L2.59399 3.93333H2.96491L5.00214 5.81385C5.08536 5.89067 5.19447 5.93333 5.30773 5.93333C5.69811 5.93333 5.90374 5.47067 5.64214 5.1809L3.7381 3.07179V2.54594L5.69028 0.743925C5.827 0.617721 5.90476 0.440121 5.90476 0.254056V0V-0.697712L5.36198 -0.259314L2.97744 1.66667H2.60652L0.535617 -0.244934L0.439852 -0.333333H0.309524H0Z" fill="#DB1E36" stroke="white" stroke-width="0.666667"/>
<path fill-rule="evenodd" clip-rule="evenodd" d="M0 2V3.6H2.16667V5.38095C2.16667 5.72284 2.44382 6 2.78571 6V6C3.1276 6 3.40476 5.72284 3.40476 5.38095V3.6H5.21429C5.58247 3.6 5.88095 3.30152 5.88095 2.93333V2.66667C5.88095 2.29848 5.58248 2 5.21429 2H3.40476V0H2.16667V2H0Z" fill="white"/>
<path fill-rule="evenodd" clip-rule="evenodd" d="M0 2.4H2.47619V2V0H3.09524V2V2.4H5.57143V3.2H3.09524V3.6V5.6H2.47619V3.6V3.2H0V2.4Z" fill="#DB1E36"/>
</g>
<defs>
<linearGradient id="paint0_linear" x1="0" y1="0" x2="0" y2="12" gradientUnits="userSpaceOnUse">
<stop stop-color="#07319C"/>
<stop offset="1" stop-color="#00247E"/>
</linearGradient>
</defs>
</svg>

<svg width="13" height="12" fill="none" xmlns="http://www.w3.org/2000/svg"><rect width="13" height="12" rx="2" fill="#fff"/><mask id="a" maskUnits="userSpaceOnUse" x="0" y="0" width="13" height="12"><rect width="13" height="12" rx="2" fill="#fff"/></mask><g mask="url(#a)"><path fill="url(#paint0_linear)" d="M0 0h13v12H0z"/><path fill-rule="evenodd" clip-rule="evenodd" d="M8.048 6V4.533c0-.736.597-1.333 1.333-1.333h.429c.736 0 1.333.597 1.333 1.333V6c0 2-1.548 2.8-1.548 2.8S8.048 8 8.048 6z" fill="#8FC5FF"/><mask id="b" maskUnits="userSpaceOnUse" x="8" y="3" width="4" height="6"><path fill-rule="evenodd" clip-rule="evenodd" d="M8.048 6V4.533c0-.736.597-1.333 1.333-1.333h.429c.736 0 1.333.597 1.333 1.333V6c0 2-1.548 2.8-1.548 2.8S8.048 8 8.048 6z" fill="#fff"/></mask><g mask="url(#b)"><path fill-rule="evenodd" clip-rule="evenodd" d="M9.327 7.13s.31-.518.493-.518c.182 0 .215.344.495.344s.428-.549.698-.549c.27 0 0 1.8 0 1.8l-.365.488-2.141.32.82-1.885z" fill="#366CC9"/><path fill-rule="evenodd" clip-rule="evenodd" d="M8.416 6.33L8.689 6l.268.85.36-.85.31 2.421-.515-.135L7.43 7.29l.987-.96z" fill="#CF6200"/><path fill="#FF0" d="M8.048 3.2h3.095v2.4H8.048z"/></g><path d="M8.38 6V4.533a1 1 0 011-1h.43a1 1 0 011 1V6c0 .906-.349 1.531-.694 1.933a2.874 2.874 0 01-.52.474 2.873 2.873 0 01-.521-.474C8.728 7.53 8.38 6.906 8.38 6z" stroke="#fff" stroke-width=".667"/><path d="M0-.333h-.75l.503.556 2.08 2.305v.526l-2.06 1.901-.106.1v1.242l.542-.439 2.385-1.926h.37l2.038 1.88a.45.45 0 00.64-.632L3.738 3.07v-.525L5.69.744a.667.667 0 00.215-.49v-.952l-.543.439-2.385 1.926h-.37L.536-.245.44-.333H0z" fill="#DB1E36" stroke="#fff" stroke-width=".667"/><path fill-rule="evenodd" clip-rule="evenodd" d="M0 2v1.6h2.167v1.781a.62.62 0 001.238 0V3.6h1.81a.667.667 0 00.666-.667v-.266A.667.667 0 005.214 2h-1.81V0H2.168v2H0z" fill="#fff"/><path fill-rule="evenodd" clip-rule="evenodd" d="M0 2.4h2.476V0h.62v2.4H5.57v.8H3.095v2.4h-.619V3.2H0v-.8z" fill="#DB1E36"/></g><defs><linearGradient id="paint0_linear" x1="0" y1="0" x2="0" y2="12" gradientUnits="userSpaceOnUse"><stop stop-color="#07319C"/><stop offset="1" stop-color="#00247E"/></linearGradient></defs></svg>
